laterpay/assets/img/laterpay-icon-pay.svg

<svg xmlns="http://www.w3.org/2000/svg" viewBox="65 -9 318 318" enable-background="new 65 -9 318 318"><style>.lp_teaser-overlay-icons {fill:#4dac64;}</style><path d="M156.323 174.79v-4.807c0-.735.54-1.33 1.206-1.33h50.296c.666 0 1.2.6 1.2 1.33v4.806c0 .733-.54 1.327-1.206 1.327h-50.297c-.66-.018-1.223-.618-1.223-1.33zm1.515 13.043h63.228c.837 0 1.515-.594 1.515-1.33V181.7c0-.735-.676-1.33-1.513-1.33H157.84c-.838 0-1.516.595-1.516 1.33v4.806c0 .696.677 1.296 1.477 1.33zM374 150c0 82.842-67.158 150-150 150S74 232.8 74 150 141.158 0 224 0s150 67.2 150 150zm-70.023-11.89H144.023v50.26c0 6.1 5 11.1 11.1 11.06h137.832c6.108 0 11.06-4.952 11.06-11.06v-50.26zm0-26.48c0-6.108-4.953-11.06-11.06-11.06H155.083c-6.108 0-11.06 4.952-11.06 11.06v10.158H303.98V111.63h-.003z" class="lp_teaser-overlay-icons"/></svg>

<svg xmlns="http://www.w3.org/2000/svg" xmlns:xlink="http://www.w3.org/1999/xlink" version="1.1" x="0px" y="0px" viewBox="65 -9 318 318" enable-background="new 65 -9 318 318" xml:space="preserve"><style>.lp_teaser-overlay-icons {fill:#4dac64;}</style><path d="M156.323 174.789v-4.806c0-0.735 0.54-1.329 1.206-1.329h50.298c0.666 0 1.2 0.6 1.2 1.329v4.806 c0 0.735-0.54 1.329-1.206 1.329h-50.298C156.863 176.1 156.3 175.5 156.3 174.789z M157.838 187.833h63.228 c0.837 0 1.515-0.594 1.515-1.329v-4.806c0-0.735-0.678-1.329-1.515-1.329h-63.228c-0.837 0-1.515 0.594-1.515 1.329v4.806 C156.323 187.2 157 187.8 157.8 187.833z M374 150c0 82.842-67.158 150-150 150S74 232.8 74 150S141.158 0 224 0 S374 67.2 374 150z M303.977 138.111H144.023v50.259c0 6.1 5 11.1 11.1 11.061h137.832 c6.108 0 11.061-4.953 11.061-11.061V138.111z M303.977 111.63c0-6.108-4.953-11.061-11.061-11.061H155.084 c-6.108 0-11.061 4.953-11.061 11.061v10.158H303.98V111.63H303.977z" class="lp_teaser-overlay-icons"/></svg>
